X: 43
T:Cameron House (#239)
M:4/4
L:1/8
S:Aird's Selections 1782-97
R:Reel
K:C
A/2B/2|EAAB cB A2|GGGA Bd c/2B/2A/2G/2|EAAB cAca|ge e/2d/2c/2B/2 cAA:||
e|a"tr"bc'a ee a2|gedg BGGe|a"tr"bc'a ee a2|ge e/2d/2c/2B/2 cAAe|
a"tr"bc'a ee a2|gedg BGGB|ceAe aec'a|ge e/2d/2c/2B/2 cAA||

